X:69
T: LEBE LIEBE TRINKE
N: B0555
O: Europa, Mitteleuropa, Deutschland
R: Studenten -, Trink - Lied, Rund - Gesang
M: 4/4
L: 1/8
K: F
 | F2C2G2C2 | c3dcBAG |
F2F2G2A2 | G2C2C2z2 |
c3AF2F2 | d2c2B2A2 |
G2A2B3d | c2E2F2z2

@@@ Tune index: 2287
